src/assets/images/Dashboard-Banner.svg

<svg width="675" height="155" viewBox="0 0 675 155" fill="none" xmlns="http://www.w3.org/2000/svg">
<path d="M615.736 32.3364H599.827C599.016 32.3354 598.239 32.0137 597.665 31.4418C597.092 30.8699 596.769 30.0945 596.768 29.2858V13.4227C596.769 12.6139 597.092 11.8385 597.665 11.2666C598.239 10.6947 599.016 10.373 599.827 10.3721H615.736C616.547 10.373 617.324 10.6947 617.898 11.2666C618.471 11.8385 618.794 12.6139 618.795 13.4227V29.2858C618.794 30.0945 618.471 30.8699 617.898 31.4418C617.324 32.0137 616.547 32.3354 615.736 32.3364ZM599.827 11.5923C599.341 11.5928 598.874 11.7858 598.53 12.129C598.186 12.4721 597.992 12.9374 597.992 13.4227V29.2858C597.992 29.771 598.186 30.2363 598.53 30.5794C598.874 30.9226 599.341 31.1156 599.827 31.1161H615.736C616.222 31.1156 616.689 30.9226 617.033 30.5794C617.377 30.2363 617.571 29.771 617.571 29.2858V13.4227C617.571 12.9374 617.377 12.4721 617.033 12.129C616.689 11.7858 616.222 11.5928 615.736 11.5923H599.827Z" fill="#D1C9C9"/>
<path d="M75.9675 149.765H60.0593C59.2482 149.764 58.4706 149.442 57.8971 148.87C57.3235 148.298 57.0009 147.523 57 146.714V130.851C57.0009 130.042 57.3235 129.267 57.8971 128.695C58.4706 128.123 59.2482 127.802 60.0593 127.801H75.9675C76.7786 127.802 77.5561 128.123 78.1297 128.695C78.7032 129.267 79.0258 130.042 79.0268 130.851V146.714C79.0258 147.523 78.7032 148.298 78.1297 148.87C77.5561 149.442 76.7786 149.764 75.9675 149.765ZM60.0593 129.021C59.5726 129.021 59.106 129.214 58.7619 129.558C58.4178 129.901 58.2242 130.366 58.2237 130.851V146.714C58.2242 147.2 58.4178 147.665 58.7619 148.008C59.106 148.351 59.5726 148.544 60.0593 148.545H75.9675C76.4541 148.544 76.9207 148.351 77.2648 148.008C77.609 147.665 77.8025 147.2 77.8031 146.714V130.851C77.8025 130.366 77.609 129.901 77.2648 129.558C76.9207 129.214 76.4541 129.021 75.9675 129.021H60.0593Z" fill="#E6E6E6"/>
<path d="M623.078 21.9643H607.17C606.359 21.9634 605.581 21.6417 605.007 21.0698C604.434 20.4979 604.111 19.7225 604.11 18.9137V3.0506C604.111 2.24181 604.434 1.46643 605.007 0.89453C605.581 0.322633 606.359 0.000925277 607.17 0H623.078C623.889 0.000925277 624.666 0.322633 625.24 0.89453C625.814 1.46643 626.136 2.24181 626.137 3.0506V18.9137C626.136 19.7225 625.814 20.4979 625.24 21.0698C624.666 21.6417 623.889 21.9634 623.078 21.9643V21.9643ZM607.17 1.22024C606.683 1.22077 606.216 1.41378 605.872 1.75692C605.528 2.10007 605.335 2.56532 605.334 3.0506V18.9137C605.335 19.399 605.528 19.8642 605.872 20.2074C606.216 20.5505 606.683 20.7435 607.17 20.744H623.078C623.564 20.7435 624.031 20.5505 624.375 20.2074C624.719 19.8642 624.913 19.399 624.913 18.9137V3.0506C624.913 2.56532 624.719 2.10007 624.375 1.75692C624.031 1.41378 623.564 1.22077 623.078 1.22024H607.17Z" fill="#D1C9C9"/>
<path d="M83.3098 139.393H67.4016C66.5905 139.392 65.8129 139.07 65.2393 138.498C64.6658 137.926 64.3432 137.151 64.3423 136.342V120.479C64.3432 119.67 64.6658 118.895 65.2393 118.323C65.8129 117.751 66.5905 117.43 67.4016 117.429H83.3098C84.1208 117.43 84.8984 117.751 85.4719 118.323C86.0455 118.895 86.3681 119.67 86.369 120.479V136.342C86.3681 137.151 86.0455 137.926 85.4719 138.498C84.8984 139.07 84.1208 139.392 83.3098 139.393V139.393ZM67.4016 118.649C66.9149 118.649 66.4483 118.842 66.1042 119.186C65.7601 119.529 65.5665 119.994 65.566 120.479V136.342C65.5665 136.828 65.7601 137.293 66.1042 137.636C66.4483 137.979 66.9149 138.172 67.4016 138.173H83.3098C83.7964 138.172 84.263 137.979 84.6071 137.636C84.9512 137.293 85.1448 136.828 85.1453 136.342V120.479C85.1448 119.994 84.9512 119.529 84.6071 119.186C84.263 118.842 83.7964 118.649 83.3098 118.649H67.4016Z" fill="#E6E6E6"/>
<path d="M562.54 57.1297C564.726 57.1297 566.497 55.3632 566.497 53.1842C566.497 51.0051 564.726 49.2386 562.54 49.2386C560.355 49.2386 558.583 51.0051 558.583 53.1842C558.583 55.3632 560.355 57.1297 562.54 57.1297Z" fill="#E6E6E6"/>
<path d="M670.227 77.2636C672.412 77.2636 674.184 75.4971 674.184 73.3181C674.184 71.139 672.412 69.3725 670.227 69.3725C668.042 69.3725 666.27 71.139 666.27 73.3181C666.27 75.4971 668.042 77.2636 670.227 77.2636Z" fill="#E6E6E6"/>
<path d="M3.95679 77.2636C6.14206 77.2636 7.91357 75.4971 7.91357 73.3181C7.91357 71.139 6.14206 69.3725 3.95679 69.3725C1.77151 69.3725 0 71.139 0 73.3181C0 75.4971 1.77151 77.2636 3.95679 77.2636Z" fill="#E6E6E6"/>
<g clip-path="url(#clip0_254_27306)">
<path d="M183.134 134.586L182.543 133.897C187.541 129.617 193.761 124.289 196.089 117.248C198.384 110.306 196.657 101.926 191.583 95.3774C187.265 89.804 180.597 85.4153 172.301 82.6853C170.664 82.1468 168.965 81.6685 167.322 81.2058C163.35 80.0878 159.243 78.9314 155.606 76.8181C150.596 73.9074 146.046 68.1901 147.173 61.9788C147.556 59.9914 148.489 58.151 149.866 56.6666C151.242 55.1823 153.008 54.1135 154.962 53.5815L155.203 54.4564C153.413 54.9434 151.795 55.9222 150.534 57.2816C149.272 58.641 148.417 60.3267 148.066 62.1472C147.018 67.9193 151.327 73.2821 156.062 76.0337C159.6 78.0891 163.651 79.2296 167.568 80.3324C169.22 80.7977 170.929 81.2788 172.585 81.8235C181.054 84.6102 187.872 89.1048 192.301 94.8217C197.558 101.606 199.339 110.308 196.951 117.532C194.543 124.814 188.217 130.232 183.134 134.586Z" fill="#EACBB4"/>
<path d="M161.597 57.0418C165.885 56.1157 168.997 53.6773 168.547 51.5954C168.097 49.5135 164.255 48.5765 159.967 49.5026C155.678 50.4286 152.566 52.8671 153.017 54.949C153.467 57.0309 157.308 57.9679 161.597 57.0418Z" fill="#EACBB4"/>
<path d="M173.177 80.5355C177.466 79.6095 180.578 77.171 180.128 75.0891C179.678 73.0072 175.836 72.0702 171.548 72.9963C167.259 73.9224 164.147 76.3608 164.597 78.4427C165.047 80.5246 168.889 81.4616 173.177 80.5355Z" fill="#EACBB4"/>
<path d="M159.841 87.5931C164.13 86.667 167.241 84.2285 166.791 82.1466C166.341 80.0647 162.5 79.1277 158.211 80.0538C153.923 80.9799 150.811 83.4183 151.261 85.5002C151.711 87.5822 155.553 88.5191 159.841 87.5931Z" fill="#EACBB4"/>
<path d="M271.488 83.8543H270.58V86.5766H271.488V83.8543Z" fill="#E5E5E5"/>
<path d="M271.488 144.58H270.58V138.779H271.488V144.58ZM271.488 132.979H270.58V127.179H271.488V132.979ZM271.488 121.378H270.58V115.578H271.488V121.378ZM271.488 109.778H270.58V103.977H271.488V109.778ZM271.488 98.1772H270.58V92.3768H271.488V98.1772Z" fill="#E5E5E5"/>
<path d="M271.488 150.38H270.58V153.103H271.488V150.38Z" fill="#E5E5E5"/>
<path d="M370.905 83.8543H369.997V86.5766H370.905V83.8543Z" fill="#E5E5E5"/>
<path d="M370.905 144.58H369.997V138.779H370.905V144.58ZM370.905 132.979H369.997V127.179H370.905V132.979ZM370.905 121.378H369.997V115.578H370.905V121.378ZM370.905 109.778H369.997V103.977H370.905V109.778ZM370.905 98.1772H369.997V92.3768H370.905V98.1772Z" fill="#E5E5E5"/>
<path d="M370.905 150.38H369.997V153.103H370.905V150.38Z" fill="#E5E5E5"/>
<path d="M421.054 30.5987H420.146V33.321H421.054V30.5987Z" fill="#E5E5E5"/>
<path d="M421.054 144.806H420.146V139.232H421.054V144.806ZM421.054 133.658H420.146V128.083H421.054V133.658ZM421.054 122.509H420.146V116.935H421.054V122.509ZM421.054 111.361H420.146V105.786H421.054V111.361ZM421.054 100.212H420.146V94.6376H421.054V100.212ZM421.054 89.0634H420.146V83.4892H421.054V89.0634ZM421.054 77.915H420.146V72.3408H421.054V77.915ZM421.054 66.7666H420.146V61.1923H421.054V66.7666ZM421.054 55.6179H420.146V50.0437H421.054V55.6179ZM421.054 44.4695H420.146V38.8953H421.054V44.4695Z" fill="#E5E5E5"/>
<path d="M421.054 150.38H420.146V153.103H421.054V150.38Z" fill="#E5E5E5"/>
<path d="M470.702 8.82028H469.794V11.5426H470.702V8.82028Z" fill="#E5E5E5"/>
<path d="M470.702 144.827H469.794V139.273H470.702V144.827ZM470.702 133.72H469.794V128.166H470.702V133.72ZM470.702 122.613H469.794V117.059H470.702V122.613ZM470.702 111.506H469.794V105.952H470.702V111.506ZM470.702 100.399H469.794V94.8452H470.702V100.399ZM470.702 89.2917H469.794V83.7382H470.702V89.2917ZM470.702 78.1847H469.794V72.6312H470.702V78.1847ZM470.702 67.0777H469.794V61.5242H470.702V67.0777ZM470.702 55.9707H469.794V50.4172H470.702V55.9707ZM470.702 44.8637H469.794V39.3102H470.702V44.8637ZM470.702 33.7567H469.794V28.2032H470.702V33.7567ZM470.702 22.6497H469.794V17.0962H470.702V22.6497Z" fill="#E5E5E5"/>
<path d="M470.702 150.38H469.794V153.103H470.702V150.38Z" fill="#E5E5E5"/>
<path d="M321.423 47.3863H320.515V50.1086H321.423V47.3863Z" fill="#E5E5E5"/>
<path d="M321.423 145.103H320.515V139.826H321.423V145.103ZM321.423 134.548H320.515V129.271H321.423V134.548ZM321.423 123.993H320.515V118.716H321.423V123.993ZM321.423 113.438H320.515V108.161H321.423V113.438ZM321.423 102.883H320.515V97.6059H321.423V102.883ZM321.423 92.3283H320.515V87.0509H321.423V92.3283ZM321.423 81.7734H320.515V76.496H321.423V81.7734ZM321.423 71.2184H320.515V65.9411H321.423V71.2184ZM321.423 60.6635H320.515V55.3862H321.423V60.6635Z" fill="#E5E5E5"/>
<path d="M321.423 150.38H320.515V153.103H321.423V150.38Z" fill="#E5E5E5"/>
<path d="M521.059 154.367H220.483C220.233 154.367 219.994 154.267 219.818 154.091C219.641 153.915 219.542 153.676 219.542 153.426V9.43699C219.543 9.188 219.642 8.9494 219.818 8.77353C219.995 8.59766 220.234 8.4989 220.483 8.4989C220.732 8.4989 220.971 8.59766 221.147 8.77353C221.324 8.9494 221.423 9.188 221.423 9.43699V152.486H521.059C521.183 152.486 521.306 152.51 521.42 152.557C521.534 152.604 521.638 152.673 521.726 152.761C521.813 152.848 521.883 152.952 521.93 153.066C521.978 153.18 522.002 153.303 522.002 153.426C522.002 153.55 521.978 153.672 521.93 153.787C521.883 153.901 521.813 154.005 521.726 154.092C521.638 154.179 521.534 154.248 521.42 154.296C521.306 154.343 521.183 154.367 521.059 154.367Z" fill="#3F3D56"/>
<path d="M370.863 85.1179L320.889 47.7066L271.598 84.6066L270.469 83.1016L320.889 45.3568L370.625 82.5902L420.05 28.5325L420.248 28.4522L470.104 8.37564L470.807 10.1202L421.15 30.1164L370.863 85.1179Z" fill="#3F3D56"/>
<path d="M271.034 89.4952C274.151 89.4952 276.678 86.9696 276.678 83.8542C276.678 80.7388 274.151 78.2132 271.034 78.2132C267.917 78.2132 265.39 80.7388 265.39 83.8542C265.39 86.9696 267.917 89.4952 271.034 89.4952Z" fill="#883F0A"/>
<path d="M320.889 52.8287C324.006 52.8287 326.533 50.3032 326.533 47.1877C326.533 44.0723 324.006 41.5468 320.889 41.5468C317.772 41.5468 315.245 44.0723 315.245 47.1877C315.245 50.3032 317.772 52.8287 320.889 52.8287Z" fill="#883F0A"/>
<path d="M370.744 89.4952C373.861 89.4952 376.388 86.9696 376.388 83.8542C376.388 80.7388 373.861 78.2132 370.744 78.2132C367.627 78.2132 365.1 80.7388 365.1 83.8542C365.1 86.9696 367.627 89.4952 370.744 89.4952Z" fill="white"/>
<path d="M369.383 109.459C372.5 109.459 375.027 106.933 375.027 103.818C375.027 100.702 372.5 98.1768 369.383 98.1768C366.265 98.1768 363.739 100.702 363.739 103.818C363.739 106.933 366.265 109.459 369.383 109.459Z" fill="#883F0A"/>
<path d="M420.6 34.9656C423.717 34.9656 426.244 32.44 426.244 29.3246C426.244 26.2092 423.717 23.6836 420.6 23.6836C417.483 23.6836 414.956 26.2092 414.956 29.3246C414.956 32.44 417.483 34.9656 420.6 34.9656Z" fill="#883F0A"/>
<path d="M470.455 14.282C473.572 14.282 476.099 11.7564 476.099 8.64099C476.099 5.52556 473.572 3 470.455 3C467.338 3 464.811 5.52556 464.811 8.64099C464.811 11.7564 467.338 14.282 470.455 14.282Z" fill="#883F0A"/>
<path d="M218.918 113.389C220.845 108.349 221.124 103.772 219.541 103.168C217.958 102.563 215.112 106.159 213.185 111.199C211.257 116.239 210.978 120.815 212.561 121.42C214.144 122.025 216.99 118.429 218.918 113.389Z" fill="#36453B"/>
<path d="M197.98 146.59C208.778 146.59 217.531 137.842 217.531 127.05C217.531 116.258 208.778 107.509 197.98 107.509C187.183 107.509 178.429 116.258 178.429 127.05C178.429 137.842 187.183 146.59 197.98 146.59Z" fill="#36453B"/>
<path d="M195.011 142.385H189.071V153.021H195.011V142.385Z" fill="#36453B"/>
<path d="M206.889 142.385H200.95V153.021H206.889V142.385Z" fill="#36453B"/>
<path d="M194.021 155C196.754 155 198.97 154.169 198.97 153.145C198.97 152.12 196.754 151.29 194.021 151.29C191.287 151.29 189.071 152.12 189.071 153.145C189.071 154.169 191.287 155 194.021 155Z" fill="#36453B"/>
<path d="M205.9 154.753C208.633 154.753 210.849 153.922 210.849 152.898C210.849 151.873 208.633 151.042 205.9 151.042C203.166 151.042 200.95 151.873 200.95 152.898C200.95 153.922 203.166 154.753 205.9 154.753Z" fill="#36453B"/>
<path d="M198.475 128.781C202.166 128.781 205.157 125.791 205.157 122.103C205.157 118.414 202.166 115.424 198.475 115.424C194.785 115.424 191.793 118.414 191.793 122.103C191.793 125.791 194.785 128.781 198.475 128.781Z" fill="white"/>
<path d="M198.475 124.329C199.705 124.329 200.703 123.332 200.703 122.103C200.703 120.873 199.705 119.877 198.475 119.877C197.245 119.877 196.248 120.873 196.248 122.103C196.248 123.332 197.245 124.329 198.475 124.329Z" fill="#3F3D56"/>
<path d="M179.015 108.878C177.437 101.812 182.483 94.6716 190.286 92.9301C198.09 91.1886 205.696 95.505 207.274 102.571C208.853 109.637 203.681 112.243 195.878 113.985C188.074 115.726 180.594 115.944 179.015 108.878Z" fill="#883F0A"/>
<path d="M184.792 122.17C185.518 120.639 182.153 117.524 177.275 115.212C172.397 112.899 167.853 112.266 167.127 113.796C166.401 115.327 169.766 118.442 174.644 120.754C179.522 123.067 184.066 123.7 184.792 122.17Z" fill="#36453B"/>
<path d="M188.377 134.099C188.377 136.012 193.304 139.788 198.771 139.788C204.238 139.788 209.364 134.404 209.364 132.491C209.364 130.579 204.238 132.862 198.771 132.862C193.304 132.862 188.377 132.187 188.377 134.099Z" fill="white"/>
<path d="M345.576 143.481C356.374 143.481 365.127 134.732 365.127 123.94C365.127 113.148 356.374 104.4 345.576 104.4C334.778 104.4 326.025 113.148 326.025 123.94C326.025 134.732 334.778 143.481 345.576 143.481Z" fill="#36453B"/>
<path d="M342.606 139.276H336.667V149.912H342.606V139.276Z" fill="#36453B"/>
<path d="M354.485 139.276H348.546V149.912H354.485V139.276Z" fill="#36453B"/>
<path d="M345.672 153.435C346.095 152.501 344.418 150.832 341.927 149.706C339.437 148.58 337.075 148.424 336.653 149.358C336.23 150.291 337.907 151.961 340.398 153.087C342.888 154.213 345.25 154.369 345.672 153.435Z" fill="#36453B"/>
<path d="M357.04 152.856C357.488 151.934 355.857 150.22 353.398 149.027C350.939 147.833 348.583 147.613 348.135 148.535C347.687 149.456 349.318 151.171 351.777 152.364C354.236 153.558 356.592 153.778 357.04 152.856Z" fill="#36453B"/>
<path d="M326.611 105.768C325.032 98.7021 330.079 91.5621 337.882 89.8205C345.686 88.079 353.292 92.3954 354.87 99.4616C356.449 106.528 351.277 109.134 343.474 110.875C335.67 112.617 328.19 112.834 326.611 105.768Z" fill="#883F0A"/>
<path d="M366.644 115.401C370.878 111.166 373.232 106.656 371.902 105.328C370.572 103.999 366.061 106.355 361.827 110.59C357.593 114.826 355.239 119.336 356.569 120.664C357.899 121.993 362.41 119.636 366.644 115.401Z" fill="#36453B"/>
<path d="M329.528 132.018C331.064 126.231 330.836 121.149 329.019 120.667C327.201 120.185 324.482 124.485 322.946 130.272C321.409 136.058 321.637 141.14 323.454 141.622C325.272 142.104 327.991 137.804 329.528 132.018Z" fill="#36453B"/>
</g>
<defs>
<clipPath id="clip0_254_27306">
<rect width="375" height="152" fill="white" transform="translate(147 3)"/>
</clipPath>
</defs>
</svg>

<svg width="675" height="155" fill="none" xmlns="http://www.w3.org/2000/svg"><path d="M615.736 32.336h-15.909a3.068 3.068 0 0 1-2.162-.894 3.052 3.052 0 0 1-.897-2.156V13.423a3.052 3.052 0 0 1 .897-2.156 3.068 3.068 0 0 1 2.162-.895h15.909a3.068 3.068 0 0 1 2.162.895c.573.572.896 1.347.897 2.156v15.863a3.052 3.052 0 0 1-.897 2.156 3.068 3.068 0 0 1-2.162.894Zm-15.909-20.744a1.84 1.84 0 0 0-1.297.537 1.828 1.828 0 0 0-.538 1.294v15.863c0 .485.194.95.538 1.293a1.84 1.84 0 0 0 1.297.537h15.909a1.84 1.84 0 0 0 1.297-.537c.344-.343.538-.808.538-1.293V13.423c0-.486-.194-.95-.538-1.294a1.84 1.84 0 0 0-1.297-.537h-15.909Z" fill="#D1C9C9"/><path d="M75.968 149.765H60.059a3.067 3.067 0 0 1-2.162-.895 3.049 3.049 0 0 1-.897-2.156v-15.863c0-.809.324-1.584.897-2.156a3.066 3.066 0 0 1 2.162-.894h15.909a3.067 3.067 0 0 1 2.162.894 3.05 3.05 0 0 1 .897 2.156v15.863a3.05 3.05 0 0 1-.897 2.156 3.068 3.068 0 0 1-2.162.895Zm-15.909-20.744a1.835 1.835 0 0 0-1.835 1.83v15.863c0 .486.194.951.538 1.294.344.343.81.536 1.297.537h15.909a1.843 1.843 0 0 0 1.297-.537c.344-.343.537-.808.538-1.294v-15.863a1.835 1.835 0 0 0-1.836-1.83H60.06Z" fill="#E6E6E6"/><path d="M623.078 21.964H607.17a3.07 3.07 0 0 1-2.163-.894 3.052 3.052 0 0 1-.897-2.156V3.05a3.052 3.052 0 0 1 .897-2.156A3.07 3.07 0 0 1 607.17 0h15.908c.811 0 1.588.323 2.162.895.574.571.896 1.347.897 2.156v15.863a3.048 3.048 0 0 1-.897 2.156 3.068 3.068 0 0 1-2.162.894ZM607.17 1.22a1.832 1.832 0 0 0-1.836 1.83v15.864a1.832 1.832 0 0 0 1.836 1.83h15.908a1.84 1.84 0 0 0 1.297-.537c.344-.343.538-.808.538-1.293V3.05c0-.486-.194-.95-.538-1.294a1.84 1.84 0 0 0-1.297-.537H607.17Z" fill="#D1C9C9"/><path d="M83.31 139.393H67.402a3.068 3.068 0 0 1-2.163-.895 3.05 3.05 0 0 1-.897-2.156v-15.863a3.052 3.052 0 0 1 .897-2.156 3.067 3.067 0 0 1 2.163-.894H83.31a3.066 3.066 0 0 1 2.162.894c.574.572.896 1.347.897 2.156v15.863c0 .809-.323 1.584-.897 2.156a3.067 3.067 0 0 1-2.162.895Zm-15.908-20.744a1.835 1.835 0 0 0-1.836 1.83v15.863c0 .486.194.951.538 1.294.344.343.81.536 1.298.537H83.31a1.843 1.843 0 0 0 1.297-.537c.344-.343.538-.808.538-1.294v-15.863a1.835 1.835 0 0 0-1.836-1.83H67.403ZM562.54 57.13a3.95 3.95 0 0 0 3.957-3.946 3.95 3.95 0 0 0-3.957-3.945 3.952 3.952 0 0 0-3.957 3.945 3.952 3.952 0 0 0 3.957 3.946Zm107.687 20.134a3.952 3.952 0 0 0 3.957-3.946 3.952 3.952 0 0 0-3.957-3.945 3.952 3.952 0 0 0-3.957 3.945 3.952 3.952 0 0 0 3.957 3.946Zm-666.27 0a3.951 3.951 0 0 0 3.957-3.946 3.951 3.951 0 0 0-3.957-3.945A3.951 3.951 0 0 0 0 73.317a3.951 3.951 0 0 0 3.957 3.946Z" fill="#E6E6E6"/><g clip-path="url(#a)"><path d="m183.134 134.586-.591-.689c4.998-4.28 11.218-9.608 13.546-16.649 2.295-6.942.568-15.322-4.506-21.87-4.318-5.574-10.986-9.963-19.282-12.693-1.637-.538-3.336-1.017-4.979-1.48-3.972-1.117-8.079-2.274-11.716-4.387-5.01-2.91-9.56-8.628-8.433-14.84a10.823 10.823 0 0 1 7.789-8.397l.241.875a9.921 9.921 0 0 0-7.137 7.691c-1.048 5.772 3.261 11.135 7.996 13.887 3.538 2.055 7.589 3.196 11.506 4.298 1.652.466 3.361.947 5.017 1.492 8.469 2.786 15.287 7.28 19.716 12.998 5.257 6.784 7.038 15.486 4.65 22.71-2.408 7.282-8.734 12.7-13.817 17.054Z" fill="#EACBB4"/><path d="M161.597 57.042c4.288-.926 7.4-3.365 6.95-5.447-.45-2.081-4.292-3.018-8.58-2.092-4.289.926-7.401 3.364-6.95 5.446.45 2.082 4.291 3.019 8.58 2.093Zm11.58 23.493c4.289-.925 7.401-3.364 6.951-5.446-.45-2.082-4.292-3.019-8.58-2.093-4.289.926-7.401 3.365-6.951 5.447.45 2.082 4.292 3.019 8.58 2.093Zm-13.336 7.058c4.289-.926 7.4-3.365 6.95-5.446-.45-2.082-4.291-3.02-8.58-2.093-4.288.926-7.4 3.364-6.95 5.446.45 2.082 4.292 3.02 8.58 2.093Z" fill="#EACBB4"/><path d="M271.488 83.854h-.908v2.723h.908v-2.723Zm0 60.726h-.908v-5.801h.908v5.801Zm0-11.601h-.908v-5.8h.908v5.8Zm0-11.601h-.908v-5.8h.908v5.8Zm0-11.6h-.908v-5.801h.908v5.801Zm0-11.6h-.908v-5.801h.908v5.8Zm0 52.202h-.908v2.723h.908v-2.723Zm99.417-66.526h-.908v2.723h.908v-2.723Zm0 60.726h-.908v-5.801h.908v5.801Zm0-11.601h-.908v-5.8h.908v5.8Zm0-11.601h-.908v-5.8h.908v5.8Zm0-11.6h-.908v-5.801h.908v5.801Zm0-11.6h-.908v-5.801h.908v5.8Zm0 52.202h-.908v2.723h.908v-2.723Zm50.149-119.781h-.908v2.722h.908v-2.722Zm0 114.207h-.908v-5.574h.908v5.574Zm0-11.148h-.908v-5.575h.908v5.575Zm0-11.149h-.908v-5.574h.908v5.574Zm0-11.148h-.908v-5.575h.908v5.575Zm0-11.149h-.908v-5.574h.908v5.574Zm0-11.149h-.908V83.49h.908v5.574Zm0-11.148h-.908v-5.574h.908v5.574Zm0-11.148h-.908v-5.575h.908v5.575Zm0-11.15h-.908v-5.573h.908v5.574Zm0-11.148h-.908v-5.574h.908v5.574Zm0 105.911h-.908v2.723h.908v-2.723ZM470.702 8.82h-.908v2.723h.908V8.82Zm0 136.007h-.908v-5.554h.908v5.554Zm0-11.107h-.908v-5.554h.908v5.554Zm0-11.107h-.908v-5.554h.908v5.554Zm0-11.107h-.908v-5.554h.908v5.554Zm0-11.107h-.908v-5.554h.908v5.554Zm0-11.107h-.908v-5.554h.908v5.554Zm0-11.107h-.908V72.63h.908v5.554Zm0-11.107h-.908v-5.554h.908v5.554Zm0-11.107h-.908v-5.554h.908v5.554Zm0-11.107h-.908V39.31h.908v5.554Zm0-11.107h-.908v-5.554h.908v5.554Zm0-11.107h-.908v-5.554h.908v5.554Zm0 127.73h-.908v2.723h.908v-2.723ZM321.423 47.386h-.908v2.723h.908v-2.723Zm0 97.717h-.908v-5.277h.908v5.277Zm0-10.555h-.908v-5.277h.908v5.277Zm0-10.555h-.908v-5.277h.908v5.277Zm0-10.555h-.908v-5.277h.908v5.277Zm0-10.555h-.908v-5.277h.908v5.277Zm0-10.555h-.908v-5.277h.908v5.277Zm0-10.555h-.908v-5.277h.908v5.277Zm0-10.555h-.908v-5.277h.908v5.277Zm0-10.555h-.908v-5.277h.908v5.277Zm0 89.717h-.908v2.723h.908v-2.723Z" fill="#E5E5E5"/><path d="M521.059 154.367H220.483a.94.94 0 0 1-.941-.941V9.437a.943.943 0 0 1 .941-.938.94.94 0 0 1 .94.938v143.049h299.636a.948.948 0 0 1 .667.275.939.939 0 0 1-.667 1.606Z" fill="#3F3D56"/><path d="m370.863 85.118-49.974-37.411-49.291 36.9-1.129-1.505 50.42-37.745 49.736 37.233 49.425-54.058.198-.08 49.856-20.076.703 1.744-49.657 19.996-50.287 55.002Z" fill="#3F3D56"/><path d="M271.034 89.495a5.643 5.643 0 0 0 5.644-5.64 5.643 5.643 0 0 0-5.644-5.642 5.643 5.643 0 0 0-5.644 5.641 5.643 5.643 0 0 0 5.644 5.641Zm49.855-36.666a5.643 5.643 0 0 0 5.644-5.641 5.643 5.643 0 0 0-5.644-5.641 5.643 5.643 0 0 0-5.644 5.64 5.643 5.643 0 0 0 5.644 5.642Z" fill="#883F0A"/><path d="M370.744 89.495a5.643 5.643 0 0 0 5.644-5.64 5.643 5.643 0 0 0-5.644-5.642 5.643 5.643 0 0 0-5.644 5.641 5.643 5.643 0 0 0 5.644 5.641Z" fill="#fff"/><path d="M369.383 109.459a5.643 5.643 0 0 0 5.644-5.641 5.642 5.642 0 0 0-5.644-5.641 5.642 5.642 0 1 0 0 11.282ZM420.6 34.966a5.643 5.643 0 0 0 5.644-5.641 5.643 5.643 0 0 0-5.644-5.641 5.643 5.643 0 0 0-5.644 5.64 5.643 5.643 0 0 0 5.644 5.642Zm49.855-20.684a5.643 5.643 0 0 0 5.644-5.641A5.643 5.643 0 0 0 470.455 3a5.643 5.643 0 0 0-5.644 5.641 5.643 5.643 0 0 0 5.644 5.641Z" fill="#883F0A"/><path d="M218.918 113.389c1.927-5.04 2.206-9.617.623-10.221-1.583-.605-4.429 2.991-6.356 8.031-1.928 5.04-2.207 9.616-.624 10.221 1.583.605 4.429-2.991 6.357-8.031Z" fill="#36453B"/><path d="M197.98 146.59c10.798 0 19.551-8.748 19.551-19.54s-8.753-19.541-19.551-19.541c-10.797 0-19.551 8.749-19.551 19.541s8.754 19.54 19.551 19.54Z" fill="#36453B"/><path d="M195.011 142.385h-5.94v10.636h5.94v-10.636Zm11.878 0h-5.939v10.636h5.939v-10.636Z" fill="#36453B"/><path d="M194.021 155c2.733 0 4.949-.831 4.949-1.855 0-1.025-2.216-1.855-4.949-1.855-2.734 0-4.95.83-4.95 1.855 0 1.024 2.216 1.855 4.95 1.855Zm11.879-.247c2.733 0 4.949-.831 4.949-1.855 0-1.025-2.216-1.856-4.949-1.856-2.734 0-4.95.831-4.95 1.856 0 1.024 2.216 1.855 4.95 1.855Z" fill="#36453B"/><path d="M198.475 128.781a6.68 6.68 0 1 0 0-13.357 6.68 6.68 0 0 0-6.682 6.679 6.68 6.68 0 0 0 6.682 6.678Z" fill="#fff"/><path d="M198.475 124.329a2.227 2.227 0 1 0 .002-4.45 2.227 2.227 0 0 0-.002 4.45Z" fill="#3F3D56"/><path d="M179.015 108.878c-1.578-7.066 3.468-14.206 11.271-15.948 7.804-1.741 15.41 2.575 16.988 9.641 1.579 7.066-3.593 9.672-11.396 11.414-7.804 1.741-15.284 1.959-16.863-5.107Z" fill="#883F0A"/><path d="M184.792 122.17c.726-1.531-2.639-4.646-7.517-6.958-4.878-2.313-9.422-2.946-10.148-1.416-.726 1.531 2.639 4.646 7.517 6.958 4.878 2.313 9.422 2.946 10.148 1.416Z" fill="#36453B"/><path d="M188.377 134.099c0 1.913 4.927 5.689 10.394 5.689 5.467 0 10.593-5.384 10.593-7.297 0-1.912-5.126.371-10.593.371s-10.394-.675-10.394 1.237Z" fill="#fff"/><path d="M345.576 143.481c10.798 0 19.551-8.749 19.551-19.541s-8.753-19.54-19.551-19.54c-10.798 0-19.551 8.748-19.551 19.54s8.753 19.541 19.551 19.541Z" fill="#36453B"/><path d="M342.606 139.276h-5.939v10.636h5.939v-10.636Zm11.879 0h-5.939v10.636h5.939v-10.636Z" fill="#36453B"/><path d="M345.672 153.435c.423-.934-1.254-2.603-3.745-3.729-2.49-1.126-4.852-1.282-5.274-.348-.423.933 1.254 2.603 3.745 3.729 2.49 1.126 4.852 1.282 5.274.348Zm11.368-.579c.448-.922-1.183-2.636-3.642-3.829-2.459-1.194-4.815-1.414-5.263-.492-.448.921 1.183 2.636 3.642 3.829 2.459 1.194 4.815 1.414 5.263.492Z" fill="#36453B"/><path d="M326.611 105.768c-1.579-7.066 3.468-14.206 11.271-15.948 7.804-1.741 15.41 2.575 16.988 9.642 1.579 7.066-3.593 9.672-11.396 11.413-7.804 1.742-15.284 1.959-16.863-5.107Z" fill="#883F0A"/><path d="M366.644 115.401c4.234-4.235 6.588-8.745 5.258-10.073-1.33-1.329-5.841 1.027-10.075 5.262-4.234 4.236-6.588 8.746-5.258 10.074 1.33 1.329 5.841-1.028 10.075-5.263Zm-37.116 16.617c1.536-5.787 1.308-10.869-.509-11.351-1.818-.482-4.537 3.818-6.073 9.605-1.537 5.786-1.309 10.868.508 11.35 1.818.482 4.537-3.818 6.074-9.604Z" fill="#36453B"/></g><defs><clipPath id="a"><path fill="#fff" transform="translate(147 3)" d="M0 0h375v152H0z"/></clipPath></defs></svg>
